X:1
T:Ships are sailing
Z: id:dc-reel-310
M:C|
R:reel
L:1/8
K:EDor
ed|"Em"Beed BcdB|"D"ADFD ADFD|"C"EDEF GFGA|"Bm"Beef gfed|"Em"Beed BcdB|"D"ADFD ADFD|"C"EDEF GFGA|"Bm"Beed "Em"e2ed:|!
ef|"Em"gfga bgeg|"D"fefg afdf|"Em"gfga bgeg|"Bm"fedf "Em"e2ef|"Em"gfga bgeg|"D"fefg afdf|"C"g2bg "Bm"f2af|"C"edef "Bm"gfef:|!
